X:45
T:Weymss Castle Strathspey
S:Petrie's Collection of Strathspey Reels and Country Dances &c., 1790
Z:Steve Wyrick <sjwyrick'at'gmail'dot'com>, 3/20/04
N:Petrie's First Collection, page 20
L:1/8
M:C
R:Strathspey
K:Bb
F   |TB>cBF  G>FE<D|EC e/d/c/=B/  cGGA  |(B/c/d/c/) BF G>FE>D|E<C F>E     DB,B,:|
d/e/| f<bd<f B<fd<f|e<c{e}d<{c}B Tc>BG<f|f<bd<f        B<fd<B|AF f/e/d/c/ dBBg  |
      f<bd>f B<bf<d|ec e/d/c/B/  Tc>BGB |A<BG<B        F<BG>g|f>eTd>c     dBB  |]
